img/content-images/app-buttons/ua/google-play.svg

<svg width="169" height="50" viewBox="0 0 169 50" fill="none" xmlns="http://www.w3.org/2000/svg">
<g clip-path="url(#clip0_451_5337)">
<path d="M162.5 50H6.25C2.8125 50 0 47.1875 0 43.75V6.25C0 2.8125 2.8125 0 6.25 0H162.5C165.938 0 168.75 2.8125 168.75 6.25V43.75C168.75 47.1875 165.938 50 162.5 50Z" fill="#282828"/>
<path d="M162.5 1C165.4 1 167.75 3.35 167.75 6.25V43.75C167.75 46.65 165.4 49 162.5 49H6.25C3.35 49 1 46.65 1 43.75V6.25C1 3.35 3.35 1 6.25 1H162.5ZM162.5 0H6.25C2.8125 0 0 2.8125 0 6.25V43.75C0 47.1875 2.8125 50 6.25 50H162.5C165.938 50 168.75 47.1875 168.75 43.75V6.25C168.75 2.8125 165.938 0 162.5 0Z" fill="#A6A6A6"/>
<path d="M85.1748 27.1875C82.2373 27.1875 79.8373 29.425 79.8373 32.5C79.8373 35.5625 82.2373 37.8125 85.1748 37.8125C88.1123 37.8125 90.5123 35.5625 90.5123 32.5C90.5123 29.425 88.1123 27.1875 85.1748 27.1875ZM85.1748 35.725C83.5623 35.725 82.1748 34.4 82.1748 32.5C82.1748 30.5875 83.5623 29.275 85.1748 29.275C86.7873 29.275 88.1748 30.5875 88.1748 32.5C88.1748 34.4 86.7748 35.725 85.1748 35.725ZM73.5248 27.1875C70.5873 27.1875 68.1873 29.425 68.1873 32.5C68.1873 35.5625 70.5873 37.8125 73.5248 37.8125C76.4623 37.8125 78.8623 35.5625 78.8623 32.5C78.8623 29.425 76.4623 27.1875 73.5248 27.1875ZM73.5248 35.725C71.9123 35.725 70.5248 34.4 70.5248 32.5C70.5248 30.5875 71.9123 29.275 73.5248 29.275C75.1373 29.275 76.5248 30.5875 76.5248 32.5C76.5248 34.4 75.1373 35.725 73.5248 35.725ZM59.6748 28.825V31.075H65.0748C64.9123 32.3375 64.4873 33.275 63.8498 33.9125C63.0623 34.7 61.8373 35.5625 59.6873 35.5625C56.3623 35.5625 53.7623 32.8875 53.7623 29.5625C53.7623 26.2375 56.3623 23.5625 59.6873 23.5625C61.4748 23.5625 62.7873 24.2625 63.7498 25.175L65.3373 23.5875C63.9873 22.3 62.1998 21.3125 59.6748 21.3125C55.1248 21.3125 51.2998 25.0125 51.2998 29.575C51.2998 34.125 55.1248 37.8375 59.6748 37.8375C62.1373 37.8375 63.9873 37.0375 65.4373 35.525C66.9248 34.0375 67.3873 31.9375 67.3873 30.25C67.3873 29.725 67.3498 29.2375 67.2623 28.8375H59.6748V28.825ZM116.312 30.575C115.875 29.3875 114.525 27.1875 111.762 27.1875C109.025 27.1875 106.75 29.3375 106.75 32.5C106.75 35.475 109 37.8125 112.025 37.8125C114.462 37.8125 115.875 36.325 116.45 35.4625L114.637 34.25C114.037 35.1375 113.212 35.725 112.025 35.725C110.837 35.725 109.987 35.175 109.45 34.1125L116.562 31.175L116.312 30.575ZM109.062 32.35C109 30.3 110.65 29.25 111.837 29.25C112.762 29.25 113.55 29.7125 113.812 30.375L109.062 32.35ZM103.287 37.5H105.625V21.875H103.287V37.5ZM99.4623 28.375H99.3748C98.8498 27.75 97.8498 27.1875 96.5748 27.1875C93.9123 27.1875 91.4748 29.525 91.4748 32.525C91.4748 35.5 93.9123 37.825 96.5748 37.825C97.8373 37.825 98.8498 37.2625 99.3748 36.6125H99.4498V37.375C99.4498 39.4125 98.3623 40.5 96.6123 40.5C95.1873 40.5 94.2998 39.475 93.9373 38.6125L91.8998 39.4625C92.4873 40.875 94.0373 42.6 96.6123 42.6C99.3498 42.6 101.662 40.9875 101.662 37.0625V27.5125H99.4498V28.375H99.4623ZM96.7748 35.725C95.1623 35.725 93.8123 34.375 93.8123 32.525C93.8123 30.65 95.1623 29.2875 96.7748 29.2875C98.3623 29.2875 99.6123 30.6625 99.6123 32.525C99.6248 34.375 98.3748 35.725 96.7748 35.725ZM127.262 21.875H121.675V37.5H124.012V31.575H127.275C129.862 31.575 132.4 29.7 132.4 26.725C132.4 23.75 129.837 21.875 127.262 21.875ZM127.312 29.4H124V24.0375H127.312C129.062 24.0375 130.05 25.4875 130.05 26.7125C130.05 27.9375 129.062 29.4 127.312 29.4ZM141.737 27.1625C140.05 27.1625 138.3 27.9125 137.575 29.55L139.65 30.4125C140.087 29.55 140.912 29.2625 141.775 29.2625C142.975 29.2625 144.212 29.9875 144.225 31.275V31.4375C143.8 31.2 142.9 30.8375 141.787 30.8375C139.55 30.8375 137.287 32.0625 137.287 34.35C137.287 36.4375 139.112 37.7875 141.162 37.7875C142.725 37.7875 143.6 37.0875 144.137 36.2625H144.212V37.475H146.462V31.4875C146.475 28.7125 144.4 27.1625 141.737 27.1625ZM141.45 35.725C140.687 35.725 139.625 35.3375 139.625 34.4C139.625 33.2 140.95 32.7375 142.1 32.7375C143.125 32.7375 143.612 32.9625 144.225 33.2625C144.05 34.7 142.8 35.725 141.45 35.725ZM154.675 27.5L152 34.275H151.925L149.15 27.5H146.637L150.8 36.975L148.425 42.2375H150.862L157.275 27.5H154.675ZM133.675 37.5H136.012V21.875H133.675V37.5Z" fill="white"/>
<path d="M13.0501 9.42344C12.6876 9.81094 12.4751 10.4109 12.4751 11.1734V38.8234C12.4751 39.5984 12.6876 40.1984 13.0501 40.5734L13.1376 40.6609L28.6251 25.1859V24.9984V24.8109L13.1376 9.33594L13.0501 9.42344Z" fill="url(#paint0_linear_451_5337)"/>
<path d="M33.7875 30.3484L28.625 25.1859V24.9984V24.8109L33.7875 19.6484L33.9 19.7109L40.0125 23.1859C41.7625 24.1734 41.7625 25.7984 40.0125 26.7984L33.9 30.2734L33.7875 30.3484Z" fill="url(#paint1_linear_451_5337)"/>
<path d="M33.8998 30.275L28.6248 25L13.0498 40.575C13.6248 41.1875 14.5748 41.2625 15.6498 40.65L33.8998 30.275Z" fill="url(#paint2_linear_451_5337)"/>
<path d="M33.9001 19.7244L15.6376 9.34937C14.5626 8.73687 13.6126 8.81187 13.0376 9.42437L28.6251 24.9994L33.9001 19.7244Z" fill="url(#paint3_linear_451_5337)"/>
<path opacity="0.2" d="M33.7873 30.1602L15.6373 40.4727C14.6248 41.0477 13.7123 41.0102 13.1373 40.4852L13.0498 40.5727L13.1373 40.6602C13.7248 41.1852 14.6248 41.2227 15.6373 40.6477L33.8998 30.2727L33.7873 30.1602Z" fill="black"/>
<path opacity="0.12" d="M13.0496 40.3984C12.6871 40.0109 12.4746 39.4109 12.4746 38.6484V38.8359C12.4746 39.6109 12.6871 40.2109 13.0496 40.5859L13.1371 40.4984L13.0496 40.3984Z" fill="black"/>
<path opacity="0.12" d="M40.0124 26.625L33.7749 30.1625L33.8874 30.275L39.9999 26.8C40.8749 26.3 41.3124 25.65 41.3124 25C41.2499 25.5875 40.8124 26.175 40.0124 26.625Z" fill="black"/>
<path opacity="0.25" d="M15.6374 9.52212L40.0124 23.3721C40.7999 23.8221 41.2499 24.3971 41.3249 24.9971C41.3249 24.3471 40.8874 23.6846 40.0124 23.1971L15.6374 9.34711C13.8874 8.35961 12.4624 9.18462 12.4624 11.1846V11.3721C12.4624 9.35961 13.8999 8.53462 15.6374 9.52212Z" fill="white"/>
<path d="M52.6379 17.8375H51.7129V15.325H52.4504C53.1004 14.7625 53.4129 13.8125 53.4004 12.45V8.75H58.4129V15.325H59.2504V17.8375H58.3254V16.25H52.6379V17.8375ZM54.3754 12.4625C54.3879 13.65 54.1504 14.6 53.6629 15.3375H57.4504V9.675H54.3754V12.4625Z" fill="white" stroke="white" stroke-width="0.2" stroke-miterlimit="10"/>
<path d="M66.7631 15.2734C66.0256 16.0359 65.1131 16.4109 64.0131 16.4109C62.9131 16.4109 62.0006 16.0359 61.2631 15.2734C60.5256 14.5109 60.1631 13.5859 60.1631 12.4984C60.1631 11.4109 60.5256 10.4734 61.2631 9.72344C62.0006 8.96094 62.9131 8.58594 64.0131 8.58594C65.1006 8.58594 66.0131 8.96094 66.7631 9.72344C67.5006 10.4859 67.8756 11.4109 67.8756 12.4984C67.8756 13.5984 67.5006 14.5234 66.7631 15.2734ZM61.9756 14.6484C62.5256 15.2109 63.2131 15.4859 64.0131 15.4859C64.8131 15.4859 65.5006 15.2109 66.0506 14.6484C66.6006 14.0859 66.8881 13.3734 66.8881 12.4984C66.8881 11.6234 66.6131 10.9109 66.0506 10.3484C65.5006 9.78594 64.8131 9.51094 64.0131 9.51094C63.2131 9.51094 62.5256 9.78594 61.9756 10.3484C61.4256 10.9109 61.1381 11.6234 61.1381 12.4984C61.1381 13.3734 61.4256 14.0859 61.9756 14.6484Z" fill="white" stroke="white" stroke-width="0.2" stroke-miterlimit="10"/>
<path d="M72.7252 16.4125C71.6252 16.4125 70.7002 16.0375 69.9502 15.2875C69.2002 14.5375 68.8252 13.6125 68.8252 12.4875C68.8252 11.3625 69.2002 10.4375 69.9502 9.6875C70.7002 8.9375 71.6252 8.5625 72.7252 8.5625C73.8502 8.5625 74.7752 8.975 75.4752 9.7875L74.8002 10.4375C74.2877 9.8 73.6002 9.4875 72.7127 9.4875C71.9002 9.4875 71.2002 9.7625 70.6377 10.3125C70.0752 10.8625 69.8002 11.5875 69.8002 12.475C69.8002 13.3625 70.0752 14.0875 70.6377 14.6375C71.2002 15.1875 71.8877 15.4625 72.7127 15.4625C73.6127 15.4625 74.3752 15.1 75.0127 14.375L75.6877 15.05C75.3502 15.4625 74.9127 15.7875 74.4002 16.025C73.8877 16.3 73.3252 16.4125 72.7252 16.4125Z" fill="white" stroke="white" stroke-width="0.2" stroke-miterlimit="10"/>
<path d="M79.6006 16.25H78.6381V9.675H76.5381V8.75H81.6881V9.675H79.5881V16.25H79.6006Z" fill="white" stroke="white" stroke-width="0.2" stroke-miterlimit="10"/>
<path d="M88.3129 8.75L85.4754 15.075C85.0879 15.9625 84.5004 16.4125 83.7254 16.4125C83.5004 16.4125 83.2504 16.3625 82.9754 16.25L83.2254 15.3625C83.3879 15.45 83.5504 15.5 83.7254 15.5C83.9504 15.5 84.1254 15.4625 84.2504 15.375C84.3754 15.2875 84.4879 15.125 84.5879 14.9L84.8629 14.3L82.3379 8.75H83.4754L85.3254 13.05H85.3629L87.1754 8.75H88.3129Z" fill="white" stroke="white" stroke-width="0.2" stroke-miterlimit="10"/>
<path d="M89.4004 16.25V8.75H94.8254V16.25H93.8629V9.675H90.3629V16.25H89.4004Z" fill="white" stroke="white" stroke-width="0.2" stroke-miterlimit="10"/>
<path d="M96.5381 16.25V8.75H97.5006V11.9625H101.251V8.75H102.213V16.25H101.251V12.8625H97.5006V16.25H96.5381Z" fill="white" stroke="white" stroke-width="0.2" stroke-miterlimit="10"/>
<path d="M110.076 15.2734C109.338 16.0359 108.426 16.4109 107.326 16.4109C106.226 16.4109 105.313 16.0359 104.576 15.2734C103.838 14.5109 103.476 13.5859 103.476 12.4984C103.476 11.4109 103.838 10.4734 104.576 9.72344C105.313 8.96094 106.226 8.58594 107.326 8.58594C108.413 8.58594 109.326 8.96094 110.076 9.72344C110.813 10.4859 111.188 11.4109 111.188 12.4984C111.176 13.5984 110.813 14.5234 110.076 15.2734ZM105.288 14.6484C105.838 15.2109 106.526 15.4859 107.326 15.4859C108.126 15.4859 108.813 15.2109 109.363 14.6484C109.913 14.0859 110.201 13.3734 110.201 12.4984C110.201 11.6234 109.926 10.9109 109.363 10.3484C108.813 9.78594 108.126 9.51094 107.326 9.51094C106.526 9.51094 105.838 9.78594 105.288 10.3484C104.738 10.9109 104.451 11.6234 104.451 12.4984C104.451 13.3734 104.726 14.0859 105.288 14.6484Z" fill="white" stroke="white" stroke-width="0.2" stroke-miterlimit="10"/>
<path d="M115.113 16.25V8.75H117.825C118.413 8.75 118.925 8.95 119.35 9.325C119.775 9.7125 120 10.2 120 10.7875C120 11.15 119.913 11.4625 119.725 11.725C119.538 12 119.3 12.2 118.988 12.3375V12.375C119.363 12.5 119.663 12.7125 119.9 13.025C120.138 13.3375 120.263 13.6875 120.263 14.1C120.263 14.7125 120.038 15.225 119.588 15.625C119.138 16.025 118.6 16.2375 117.988 16.2375H115.113V16.25ZM116.075 11.9625H117.825C118.188 11.9625 118.475 11.8375 118.7 11.6C118.925 11.3625 119.025 11.1 119.025 10.8125C119.025 10.525 118.925 10.2625 118.7 10.025C118.488 9.7875 118.213 9.6625 117.863 9.6625H116.075V11.9625ZM116.075 15.325H118.013C118.388 15.325 118.688 15.2 118.913 14.9375C119.138 14.675 119.263 14.4 119.263 14.0875C119.263 13.775 119.15 13.5 118.9 13.25C118.663 13 118.35 12.8625 117.963 12.8625H116.063V15.325H116.075Z" fill="white" stroke="white" stroke-width="0.2" stroke-miterlimit="10"/>
</g>
<defs>
<linearGradient id="paint0_linear_451_5337" x1="27.2497" y1="10.8856" x2="6.27173" y2="31.8636" gradientUnits="userSpaceOnUse">
<stop stop-color="#00A0FF"/>
<stop offset="0.00657445" stop-color="#00A1FF"/>
<stop offset="0.2601" stop-color="#00BEFF"/>
<stop offset="0.5122" stop-color="#00D2FF"/>
<stop offset="0.7604" stop-color="#00DFFF"/>
<stop offset="1" stop-color="#00E3FF"/>
</linearGradient>
<linearGradient id="paint1_linear_451_5337" x1="42.293" y1="25.0002" x2="12.0469" y2="25.0002" gradientUnits="userSpaceOnUse">
<stop stop-color="#FFE000"/>
<stop offset="0.4087" stop-color="#FFBD00"/>
<stop offset="0.7754" stop-color="#FFA500"/>
<stop offset="1" stop-color="#FF9C00"/>
</linearGradient>
<linearGradient id="paint2_linear_451_5337" x1="31.0336" y1="27.8701" x2="2.58568" y2="56.318" gradientUnits="userSpaceOnUse">
<stop stop-color="#FF3A44"/>
<stop offset="1" stop-color="#C31162"/>
</linearGradient>
<linearGradient id="paint3_linear_451_5337" x1="9.12172" y1="0.219624" x2="21.825" y2="12.9227" gradientUnits="userSpaceOnUse">
<stop stop-color="#32A071"/>
<stop offset="0.0685" stop-color="#2DA771"/>
<stop offset="0.4762" stop-color="#15CF74"/>
<stop offset="0.8009" stop-color="#06E775"/>
<stop offset="1" stop-color="#00F076"/>
</linearGradient>
<clipPath id="clip0_451_5337">
<rect width="168.75" height="50" fill="white"/>
</clipPath>
</defs>
</svg>

<svg fill="none" xmlns="http://www.w3.org/2000/svg" viewBox="0 0 169 50"><g clip-path="url(#clip0_451_5337)"><path d="M162.5 50H6.25A6.27 6.27 0 0 1 0 43.75V6.25A6.27 6.27 0 0 1 6.25 0H162.5a6.27 6.27 0 0 1 6.25 6.25v37.5A6.27 6.27 0 0 1 162.5 50Z" fill="#282828"/><path d="M162.5 1c2.9 0 5.25 2.35 5.25 5.25v37.5c0 2.9-2.35 5.25-5.25 5.25H6.25A5.25 5.25 0 0 1 1 43.75V6.25C1 3.35 3.35 1 6.25 1H162.5Zm0-1H6.25A6.27 6.27 0 0 0 0 6.25v37.5A6.27 6.27 0 0 0 6.25 50H162.5a6.27 6.27 0 0 0 6.25-6.25V6.25A6.27 6.27 0 0 0 162.5 0Z" fill="#A6A6A6"/><path d="M85.17 27.19a5.24 5.24 0 0 0-5.33 5.31c0 3.06 2.4 5.31 5.33 5.31a5.25 5.25 0 0 0 5.34-5.31c0-3.07-2.4-5.31-5.34-5.31Zm0 8.54c-1.6 0-3-1.33-3-3.23 0-1.91 1.4-3.23 3-3.23 1.62 0 3 1.32 3 3.23 0 1.9-1.4 3.23-3 3.23Zm-11.65-8.54a5.24 5.24 0 0 0-5.33 5.31c0 3.06 2.4 5.31 5.33 5.31a5.25 5.25 0 0 0 5.34-5.31c0-3.07-2.4-5.31-5.34-5.31Zm0 8.54c-1.6 0-3-1.33-3-3.23 0-1.91 1.4-3.23 3-3.23 1.62 0 3 1.32 3 3.23 0 1.9-1.38 3.23-3 3.23Zm-13.85-6.9v2.25h5.4a4.75 4.75 0 0 1-1.22 2.83 5.51 5.51 0 0 1-4.16 1.65 5.92 5.92 0 0 1-5.93-6 5.92 5.92 0 0 1 9.99-4.38l1.59-1.6a7.87 7.87 0 0 0-5.67-2.27 8.37 8.37 0 0 0-8.37 8.27 8.38 8.38 0 0 0 8.37 8.26c2.47 0 4.32-.8 5.77-2.32 1.48-1.48 1.95-3.58 1.95-5.27 0-.52-.04-1.01-.13-1.41h-7.59v-.02Zm56.64 1.75c-.44-1.2-1.78-3.4-4.55-3.4-2.73 0-5.01 2.16-5.01 5.32a5.2 5.2 0 0 0 5.28 5.31 5.27 5.27 0 0 0 4.42-2.35l-1.81-1.21a3.02 3.02 0 0 1-2.61 1.48 2.7 2.7 0 0 1-2.58-1.62l7.11-2.93-.25-.6Zm-7.25 1.77a2.91 2.91 0 0 1 2.78-3.1c.92 0 1.71.46 1.97 1.13l-4.75 1.97Zm-5.77 5.15h2.33V21.87h-2.33V37.5Zm-3.83-9.13h-.09a3.67 3.67 0 0 0-2.8-1.18 5.29 5.29 0 0 0-5.1 5.33c0 2.98 2.44 5.3 5.1 5.3 1.27 0 2.28-.56 2.8-1.2h.08v.76c0 2.03-1.09 3.12-2.84 3.12a2.94 2.94 0 0 1-2.67-1.89l-2.04.85a5.07 5.07 0 0 0 4.71 3.14c2.74 0 5.05-1.61 5.05-5.54v-9.55h-2.21v.86h.01Zm-2.69 7.36c-1.6 0-2.96-1.35-2.96-3.2 0-1.88 1.35-3.24 2.96-3.24 1.6 0 2.84 1.37 2.84 3.23.01 1.85-1.24 3.2-2.84 3.2Zm30.5-13.85h-5.6V37.5h2.34v-5.93h3.27c2.58 0 5.12-1.87 5.12-4.84 0-2.98-2.56-4.86-5.14-4.86Zm.04 7.52H124v-5.36h3.31a2.71 2.71 0 0 1 2.74 2.67c0 1.23-.99 2.69-2.74 2.69Zm14.43-2.24c-1.69 0-3.44.75-4.17 2.39l2.08.86c.44-.86 1.26-1.15 2.13-1.15 1.2 0 2.43.73 2.44 2.01v.17a5.22 5.22 0 0 0-2.43-.6c-2.24 0-4.5 1.22-4.5 3.51 0 2.09 1.82 3.44 3.87 3.44 1.56 0 2.44-.7 2.98-1.53h.07v1.22h2.25v-6c.01-2.77-2.06-4.32-4.72-4.32Zm-.29 8.57c-.76 0-1.82-.4-1.82-1.33 0-1.2 1.32-1.66 2.47-1.66 1.03 0 1.51.22 2.13.52a2.82 2.82 0 0 1-2.78 2.47Zm13.23-8.23L152 34.27h-.07l-2.78-6.77h-2.51l4.16 9.48-2.38 5.26h2.44l6.41-14.74h-2.6Zm-21 10H136V21.87h-2.33V37.5Z" fill="#fff"/><path d="M13.05 9.42c-.36.4-.57 1-.57 1.75v27.65c0 .78.2 1.38.57 1.75l.09.1 15.49-15.48v-.38L13.13 9.34l-.08.08Z" fill="url(#paint0_linear_451_5337)"/><path d="m33.79 30.35-5.16-5.16v-.38l5.16-5.16.11.06 6.11 3.48c1.75.98 1.75 2.6 0 3.6l-6.11 3.48-.11.08Z" fill="url(#paint1_linear_451_5337)"/><path d="M33.9 30.27 28.62 25 13.05 40.58c.57.6 1.52.68 2.6.07L33.9 30.27Z" fill="url(#paint2_linear_451_5337)"/><path d="M33.9 19.72 15.64 9.35c-1.08-.61-2.03-.54-2.6.07L28.63 25l5.27-5.28Z" fill="url(#paint3_linear_451_5337)"/><path opacity=".2" d="M33.79 30.16 15.64 40.47c-1.02.58-1.93.54-2.5.02l-.09.08.09.09c.58.53 1.48.56 2.5-.01L33.9 30.27l-.11-.11Z" fill="#000"/><path opacity=".12" d="M13.05 40.4a2.52 2.52 0 0 1-.58-1.75v.19c0 .77.22 1.37.58 1.75l.09-.1-.09-.1Z" fill="#000"/><path opacity=".12" d="m40.01 26.63-6.24 3.53.12.11L40 26.8c.87-.5 1.31-1.15 1.31-1.8-.06.59-.5 1.18-1.3 1.63Z" fill="#000"/><path opacity=".25" d="M15.64 9.52 40 23.37c.79.45 1.24 1.03 1.31 1.63 0-.65-.43-1.32-1.3-1.8L15.63 9.35c-1.75-.99-3.18-.17-3.18 1.83v.2c0-2.02 1.44-2.85 3.18-1.86Z" fill="#fff"/><path d="M52.64 17.84h-.93v-2.52h.74c.65-.56.96-1.5.95-2.87v-3.7h5.01v6.57h.84v2.52h-.92v-1.59h-5.7v1.59Zm1.74-5.38a5 5 0 0 1-.72 2.88h3.79V9.68h-3.07v2.78Z" fill="#fff" stroke="#fff" stroke-width=".2" stroke-miterlimit="10"/><path d="M66.76 15.27a3.66 3.66 0 0 1-2.75 1.14 3.84 3.84 0 0 1-3.85-3.91 3.82 3.82 0 0 1 3.85-3.91 3.85 3.85 0 0 1 3.86 3.91 3.8 3.8 0 0 1-1.1 2.77Zm-4.78-.62c.55.56 1.23.84 2.03.84.8 0 1.5-.28 2.04-.84.55-.56.84-1.28.84-2.15a2.9 2.9 0 0 0-.84-2.15 2.74 2.74 0 0 0-2.04-.84c-.8 0-1.48.28-2.03.84a2.95 2.95 0 0 0-.84 2.15c0 .87.29 1.59.84 2.15Z" fill="#fff" stroke="#fff" stroke-width=".2" stroke-miterlimit="10"/><path d="M72.73 16.41c-1.1 0-2.03-.37-2.78-1.12a3.79 3.79 0 0 1-1.12-2.8c0-1.13.37-2.05 1.12-2.8a3.77 3.77 0 0 1 2.78-1.13c1.12 0 2.05.41 2.75 1.23l-.68.65a2.52 2.52 0 0 0-2.09-.95c-.81 0-1.51.27-2.07.82a2.9 2.9 0 0 0-.84 2.16 2.85 2.85 0 0 0 2.91 2.99c.9 0 1.67-.36 2.3-1.09l.68.68a3.6 3.6 0 0 1-1.29.97c-.51.28-1.07.4-1.67.4Z" fill="#fff" stroke="#fff" stroke-width=".2" stroke-miterlimit="10"/><path d="M79.6 16.25h-.96V9.68h-2.1v-.93h5.15v.93h-2.1v6.57h.01Z" fill="#fff" stroke="#fff" stroke-width=".2" stroke-miterlimit="10"/><path d="m88.31 8.75-2.83 6.32c-.4.9-.98 1.34-1.75 1.34-.23 0-.48-.05-.75-.16l.25-.89c.16.09.32.14.5.14a.9.9 0 0 0 .52-.13c.13-.08.24-.24.34-.47l.27-.6-2.52-5.55h1.14l1.85 4.3h.03l1.82-4.3h1.13Z" fill="#fff" stroke="#fff" stroke-width=".2" stroke-miterlimit="10"/><path d="M89.4 16.25v-7.5h5.43v7.5h-.97V9.68h-3.5v6.57h-.96Z" fill="#fff" stroke="#fff" stroke-width=".2" stroke-miterlimit="10"/><path d="M96.54 16.25v-7.5h.96v3.21h3.75V8.75h.96v7.5h-.96v-3.39H97.5v3.39h-.96Z" fill="#fff" stroke="#fff" stroke-width=".2" stroke-miterlimit="10"/><path d="M110.08 15.27a3.66 3.66 0 0 1-2.75 1.14 3.84 3.84 0 0 1-3.85-3.91 3.82 3.82 0 0 1 3.85-3.91 3.85 3.85 0 0 1 3.86 3.91 3.86 3.86 0 0 1-1.11 2.77Zm-4.8-.62c.56.56 1.25.84 2.05.84.8 0 1.48-.28 2.03-.84.55-.56.84-1.28.84-2.15a2.9 2.9 0 0 0-.84-2.15 2.74 2.74 0 0 0-2.03-.84c-.8 0-1.5.28-2.04.84a2.95 2.95 0 0 0-.84 2.15c0 .87.28 1.59.84 2.15Z" fill="#fff" stroke="#fff" stroke-width=".2" stroke-miterlimit="10"/><path d="M115.11 16.25v-7.5h2.72c.58 0 1.1.2 1.52.57.43.4.65.88.65 1.47a1.68 1.68 0 0 1-1.01 1.55v.04a1.84 1.84 0 0 1 1.27 1.72c0 .61-.22 1.13-.67 1.53-.45.4-.99.6-1.6.6h-2.88v.02Zm.97-4.29h1.75c.36 0 .64-.12.87-.36a1.1 1.1 0 0 0 0-1.57 1.07 1.07 0 0 0-.84-.37h-1.78v2.3Zm0 3.36H118c.38 0 .68-.12.9-.38.23-.26.35-.54.35-.85 0-.31-.11-.59-.36-.84a1.24 1.24 0 0 0-.94-.39h-1.9v2.46h.02Z" fill="#fff" stroke="#fff" stroke-width=".2" stroke-miterlimit="10"/></g><defs><linearGradient id="paint0_linear_451_5337" x1="27.25" y1="10.89" x2="6.27" y2="31.86" gradientUnits="userSpaceOnUse"><stop stop-color="#00A0FF"/><stop offset=".01" stop-color="#00A1FF"/><stop offset=".26" stop-color="#00BEFF"/><stop offset=".51" stop-color="#00D2FF"/><stop offset=".76" stop-color="#00DFFF"/><stop offset="1" stop-color="#00E3FF"/></linearGradient><linearGradient id="paint1_linear_451_5337" x1="42.29" y1="25" x2="12.05" y2="25" gradientUnits="userSpaceOnUse"><stop stop-color="#FFE000"/><stop offset=".41" stop-color="#FFBD00"/><stop offset=".78" stop-color="orange"/><stop offset="1" stop-color="#FF9C00"/></linearGradient><linearGradient id="paint2_linear_451_5337" x1="31.03" y1="27.87" x2="2.59" y2="56.32" gradientUnits="userSpaceOnUse"><stop stop-color="#FF3A44"/><stop offset="1" stop-color="#C31162"/></linearGradient><linearGradient id="paint3_linear_451_5337" x1="9.12" y1=".22" x2="21.82" y2="12.92" gradientUnits="userSpaceOnUse"><stop stop-color="#32A071"/><stop offset=".07" stop-color="#2DA771"/><stop offset=".48" stop-color="#15CF74"/><stop offset=".8" stop-color="#06E775"/><stop offset="1" stop-color="#00F076"/></linearGradient><clipPath id="clip0_451_5337"><path fill="#fff" d="M0 0h168.75v50H0z"/></clipPath></defs></svg>
